src/core/assets/excel-icon.svg

<svg width="18" height="18" viewBox="0 0 18 18" fill="none" xmlns="http://www.w3.org/2000/svg">
<path d="M11.0142 8.63447L4.78784 7.5376V15.6427C4.78777 15.7308 4.80508 15.818 4.83879 15.8994C4.87251 15.9808 4.92195 16.0547 4.98429 16.1169C5.04664 16.1792 5.12065 16.2285 5.2021 16.2621C5.28354 16.2957 5.37081 16.3128 5.4589 16.3126H16.2027C16.2908 16.313 16.3782 16.2959 16.4598 16.2624C16.5414 16.2289 16.6155 16.1796 16.678 16.1173C16.7405 16.0551 16.79 15.9811 16.8238 15.8996C16.8576 15.8182 16.8749 15.7308 16.8748 15.6427V12.6563L11.0142 8.63447Z" fill="#185C37"/>
<path d="M11.0142 1.6875H5.4589C5.37081 1.68728 5.28354 1.70445 5.2021 1.73802C5.12065 1.7716 5.04664 1.82092 4.98429 1.88316C4.92195 1.9454 4.87251 2.01933 4.83879 2.10072C4.80508 2.18211 4.78777 2.26935 4.78784 2.35744V5.34375L11.0142 9L14.311 10.0969L16.8748 9V5.34375L11.0142 1.6875Z" fill="#21A366"/>
<path d="M4.78784 5.34375H11.0142V9H4.78784V5.34375Z" fill="#107C41"/>
<path opacity="0.1" d="M9.24397 4.6123H4.78784V13.7529H9.24397C9.42153 13.752 9.59159 13.6812 9.71731 13.5558C9.84302 13.4304 9.91426 13.2606 9.91559 13.083V5.28224C9.91426 5.10468 9.84302 4.9348 9.71731 4.8094C9.59159 4.684 9.42153 4.61319 9.24397 4.6123Z" fill="black"/>
<path opacity="0.2" d="M8.87778 4.97803H4.78784V14.1187H8.87778C9.05534 14.1178 9.22541 14.047 9.35112 13.9216C9.47683 13.7962 9.54807 13.6263 9.5494 13.4487V5.64796C9.54807 5.47041 9.47683 5.30052 9.35112 5.17512C9.22541 5.04972 9.05534 4.97891 8.87778 4.97803Z" fill="black"/>
<path opacity="0.2" d="M8.87778 4.97803H4.78784V13.3874H8.87778C9.05534 13.3865 9.22541 13.3157 9.35112 13.1903C9.47683 13.0649 9.54807 12.895 9.5494 12.7175V5.64796C9.54807 5.47041 9.47683 5.30052 9.35112 5.17512C9.22541 5.04972 9.05534 4.97891 8.87778 4.97803Z" fill="black"/>
<path opacity="0.2" d="M8.51159 4.97803H4.78784V13.3874H8.51159C8.68915 13.3865 8.85922 13.3157 8.98493 13.1903C9.11065 13.0649 9.18189 12.895 9.18322 12.7175V5.64796C9.18189 5.47041 9.11065 5.30052 8.98493 5.17512C8.85922 5.04972 8.68915 4.97891 8.51159 4.97803Z" fill="black"/>
<path d="M1.79663 4.97803H8.51175C8.68963 4.97788 8.86029 5.04836 8.98623 5.17398C9.11217 5.29961 9.18308 5.47009 9.18338 5.64797V12.3518C9.18308 12.5297 9.11217 12.7002 8.98623 12.8258C8.86029 12.9514 8.68963 13.0219 8.51175 13.0218H1.79663C1.70849 13.0221 1.62115 13.005 1.53965 12.9714C1.45814 12.9379 1.38405 12.8886 1.32165 12.8263C1.25925 12.7641 1.20975 12.6901 1.17601 12.6087C1.14226 12.5273 1.12493 12.44 1.125 12.3518V5.64797C1.12493 5.55983 1.14226 5.47254 1.17601 5.39112C1.20975 5.30969 1.25925 5.23573 1.32165 5.17349C1.38405 5.11124 1.45814 5.06193 1.53965 5.02839C1.62115 4.99485 1.70849 4.97773 1.79663 4.97803Z" fill="url(#paint0_linear_261_1265)"/>
<path d="M3.20636 11.1784L4.6188 8.99366L3.32505 6.82129H4.36398L5.06992 8.21235C5.13517 8.34398 5.18242 8.44185 5.2038 8.5071H5.21336C5.25948 8.40173 5.30823 8.29935 5.35961 8.19998L6.11448 6.82354H7.07073L5.7438 8.98354L7.10449 11.1801H6.08692L5.2713 9.65516C5.23353 9.58955 5.20136 9.52086 5.17511 9.44985H5.16161C5.13777 9.51906 5.10606 9.58531 5.06711 9.64729L4.2273 11.1784H3.20636Z" fill="white"/>
<path d="M16.2034 1.6875H11.0143V5.34375H16.875V2.35744C16.8751 2.2693 16.8578 2.18201 16.824 2.10059C16.7903 2.01916 16.7408 1.94521 16.6784 1.88296C16.616 1.82071 16.5419 1.7714 16.4604 1.73786C16.3789 1.70432 16.2915 1.68721 16.2034 1.6875Z" fill="#33C481"/>
<path d="M11.0143 9H16.875V12.6562H11.0143V9Z" fill="#107C41"/>
<defs>
<linearGradient id="paint0_linear_261_1265" x1="2.52788" y1="4.45153" x2="7.7805" y2="13.5483" gradientUnits="userSpaceOnUse">
<stop stop-color="#18884F"/>
<stop offset="0.5" stop-color="#117E43"/>
<stop offset="1" stop-color="#0B6631"/>
</linearGradient>
</defs>
</svg>

<svg xmlns="http://www.w3.org/2000/svg" width="18" height="18" fill="none" viewBox="0 0 18 18"><path fill="#185c37" d="M11.014 8.634 4.788 7.538v8.105a.67.67 0 0 0 .67.67h10.745a.67.67 0 0 0 .672-.67v-2.987z"/><path fill="#21a366" d="M11.014 1.688H5.46a.67.67 0 0 0-.671.67v2.986L11.014 9l3.297 1.097L16.875 9V5.344z"/><path fill="#107c41" d="M4.788 5.344h6.226V9H4.788z"/><path fill="#000" d="M9.244 4.612H4.788v9.14h4.456a.675.675 0 0 0 .672-.669v-7.8a.675.675 0 0 0-.672-.67" opacity=".1"/><path fill="#000" d="M8.878 4.978h-4.09v9.14h4.09a.675.675 0 0 0 .671-.67v-7.8a.675.675 0 0 0-.671-.67" opacity=".2"/><path fill="#000" d="M8.878 4.978h-4.09v8.41h4.09a.675.675 0 0 0 .671-.67v-7.07a.675.675 0 0 0-.671-.67" opacity=".2"/><path fill="#000" d="M8.512 4.978H4.788v8.41h3.724a.675.675 0 0 0 .671-.67v-7.07a.675.675 0 0 0-.671-.67" opacity=".2"/><path fill="url(#paint0_linear_261_1265)" d="M1.797 4.978h6.715a.67.67 0 0 1 .671.67v6.704a.67.67 0 0 1-.671.67H1.797a.67.67 0 0 1-.672-.67V5.648a.67.67 0 0 1 .672-.67"/><path fill="#fff" d="M3.206 11.178 4.62 8.994 3.325 6.82h1.039l.706 1.391q.1.198.134.295h.01q.068-.158.146-.307l.754-1.376h.957l-1.327 2.16 1.36 2.196H6.087L5.27 9.655a1.4 1.4 0 0 1-.096-.205h-.013a1 1 0 0 1-.095.197l-.84 1.531z"/><path fill="#33c481" d="M16.203 1.688h-5.189v3.656h5.861V2.357a.67.67 0 0 0-.672-.67"/><path fill="#107c41" d="M11.014 9h5.861v3.656h-5.86z"/><defs><linearGradient id="paint0_linear_261_1265" x1="2.528" x2="7.78" y1="4.452" y2="13.548" gradientUnits="userSpaceOnUse"><stop stop-color="#18884f"/><stop offset=".5" stop-color="#117e43"/><stop offset="1" stop-color="#0b6631"/></linearGradient></defs></svg>
